assets/akiflow/original.svg

<svg viewBox="0 0 24 24" xmlns="http://www.w3.org/2000/svg" fill="#AF38F9"><path d="m9.425 5.2-3.968 12.8h5.795l.948-2.99.947 2.99h5.795l-3.968-12.8zm.836.8h4.124l3.472 11.2h-4.124l-1.152-3.632zm-.543.957 2.063 6.728-1.113 3.515h-4.125zm2.282-6.957c-6.627 0-12 5.373-12 12s5.373 12 12 12 12-5.373 12-12-5.373-12-12-12zm0 .8c6.186 0 11.2 5.013 11.2 11.2 0 6.186-5.014 11.2-11.2 11.2s-11.2-5.014-11.2-11.2 5.014-11.2 11.2-11.2z"/></svg>

<svg xmlns="http://www.w3.org/2000/svg" fill="#af38f9" viewBox="0 0 24 24"><path d="M9.425 5.2 5.457 18h5.795l.948-2.99.947 2.99h5.795L14.974 5.2zm.836.8h4.124l3.472 11.2h-4.124l-1.152-3.632zm-.543.957 2.063 6.728-1.113 3.515H6.543zM12 0C5.373 0 0 5.373 0 12s5.373 12 12 12 12-5.373 12-12S18.627 0 12 0m0 .8C18.186.8 23.2 5.813 23.2 12S18.186 23.2 12 23.2.8 18.186.8 12 5.814.8 12 .8"/></svg>
